images/6605142.svg

<?xml version="1.0" encoding="UTF-8"?>
<svg xmlns="http://www.w3.org/2000/svg" xmlns:xlink="http://www.w3.org/1999/xlink" width="300pt" height="300pt" viewBox="0 0 300 300" version="1.1">
<defs>
<g>
<symbol overflow="visible" id="glyph0-0">
<path style="stroke:none;" d="M 0.453125 1.59375 L 0.453125 -6.34375 L 4.953125 -6.34375 L 4.953125 1.59375 Z M 0.953125 1.09375 L 4.453125 1.09375 L 4.453125 -5.84375 L 0.953125 -5.84375 Z M 0.953125 1.09375 "/>
</symbol>
<symbol overflow="visible" id="glyph0-1">
<path style="stroke:none;" d="M 0.890625 -6.5625 L 2.078125 -6.5625 L 4.984375 -1.078125 L 4.984375 -6.5625 L 5.84375 -6.5625 L 5.84375 0 L 4.65625 0 L 1.75 -5.484375 L 1.75 0 L 0.890625 0 Z M 0.890625 -6.5625 "/>
</symbol>
<symbol overflow="visible" id="glyph0-2">
<path style="stroke:none;" d="M 0.890625 -6.5625 L 1.765625 -6.5625 L 1.765625 -3.875 L 5 -3.875 L 5 -6.5625 L 5.890625 -6.5625 L 5.890625 0 L 5 0 L 5 -3.125 L 1.765625 -3.125 L 1.765625 0 L 0.890625 0 Z M 0.890625 -6.5625 "/>
</symbol>
</g>
</defs>
<g id="surface38241">
<rect x="0" y="0" width="300" height="300" style="fill:rgb(100%,100%,100%);fill-opacity:1;stroke:none;"/>
<path style="fill:none;stroke-width:1.2;stroke-linecap:butt;stroke-linejoin:miter;stroke:rgb(0%,0%,0%);stroke-opacity:1;stroke-miterlimit:10;" d="M 181.265625 208.855469 L 176.453125 190.007812 "/>
<path style="fill:none;stroke-width:1.2;stroke-linecap:butt;stroke-linejoin:miter;stroke:rgb(0%,0%,0%);stroke-opacity:1;stroke-miterlimit:10;" d="M 176.453125 190.007812 L 167.089844 187.382812 "/>
<path style="fill:none;stroke-width:1.2;stroke-linecap:butt;stroke-linejoin:miter;stroke:rgb(0%,0%,100%);stroke-opacity:1;stroke-miterlimit:10;" d="M 167.089844 187.382812 L 157.726562 184.753906 "/>
<path style="fill:none;stroke-width:1.2;stroke-linecap:butt;stroke-linejoin:miter;stroke:rgb(0%,0%,0%);stroke-opacity:1;stroke-miterlimit:10;" d="M 175.816406 185.078125 L 168.324219 182.976562 "/>
<path style="fill:none;stroke-width:1.2;stroke-linecap:butt;stroke-linejoin:miter;stroke:rgb(0%,0%,100%);stroke-opacity:1;stroke-miterlimit:10;" d="M 168.324219 182.976562 L 160.835938 180.875 "/>
<path style="fill:none;stroke-width:1.2;stroke-linecap:butt;stroke-linejoin:miter;stroke:rgb(0%,0%,100%);stroke-opacity:1;stroke-miterlimit:10;" d="M 190.367188 176.417969 L 183.410156 183.210938 "/>
<path style="fill:none;stroke-width:1.2;stroke-linecap:butt;stroke-linejoin:miter;stroke:rgb(0%,0%,0%);stroke-opacity:1;stroke-miterlimit:10;" d="M 183.410156 183.210938 L 176.453125 190.007812 "/>
<path style="fill:none;stroke-width:1.2;stroke-linecap:butt;stroke-linejoin:miter;stroke:rgb(0%,0%,100%);stroke-opacity:1;stroke-miterlimit:10;" d="M 157.726562 184.753906 L 155.316406 175.332031 "/>
<path style="fill:none;stroke-width:1.2;stroke-linecap:butt;stroke-linejoin:miter;stroke:rgb(0%,0%,0%);stroke-opacity:1;stroke-miterlimit:10;" d="M 155.316406 175.332031 L 152.910156 165.910156 "/>
<path style=" stroke:none;fill-rule:nonzero;fill:rgb(100%,100%,100%);fill-opacity:1;" d="M 154.726562 179.253906 L 161.726562 179.253906 L 161.726562 190.253906 L 154.726562 190.253906 Z M 154.726562 179.253906 "/>
<g style="fill:rgb(0%,0%,100%);fill-opacity:1;">
  <use xlink:href="#glyph0-1" x="154.726562" y="187.916992"/>
</g>
<path style="fill:none;stroke-width:1.2;stroke-linecap:butt;stroke-linejoin:miter;stroke:rgb(0%,0%,0%);stroke-opacity:1;stroke-miterlimit:10;" d="M 152.910156 165.910156 L 166.824219 152.316406 "/>
<path style="fill:none;stroke-width:1.2;stroke-linecap:butt;stroke-linejoin:miter;stroke:rgb(0%,0%,0%);stroke-opacity:1;stroke-miterlimit:10;" d="M 151.105469 161.277344 L 162.234375 150.402344 "/>
<path style="fill:none;stroke-width:1.2;stroke-linecap:butt;stroke-linejoin:miter;stroke:rgb(0%,0%,100%);stroke-opacity:1;stroke-miterlimit:10;" d="M 135.683594 156.875 L 144.296875 161.390625 "/>
<path style="fill:none;stroke-width:1.2;stroke-linecap:butt;stroke-linejoin:miter;stroke:rgb(0%,0%,0%);stroke-opacity:1;stroke-miterlimit:10;" d="M 144.296875 161.390625 L 152.910156 165.910156 "/>
<path style="fill:none;stroke-width:1.2;stroke-linecap:butt;stroke-linejoin:miter;stroke:rgb(0%,0%,0%);stroke-opacity:1;stroke-miterlimit:10;" d="M 166.824219 152.316406 L 185.554688 157.570312 "/>
<path style="fill:none;stroke-width:1.2;stroke-linecap:butt;stroke-linejoin:miter;stroke:rgb(0%,0%,0%);stroke-opacity:1;stroke-miterlimit:10;" d="M 166.824219 152.316406 L 162.511719 143.601562 "/>
<path style="fill:none;stroke-width:1.2;stroke-linecap:butt;stroke-linejoin:miter;stroke:rgb(0%,0%,100%);stroke-opacity:1;stroke-miterlimit:10;" d="M 162.511719 143.601562 L 158.199219 134.882812 "/>
<path style="fill:none;stroke-width:1.2;stroke-linecap:butt;stroke-linejoin:miter;stroke:rgb(0%,0%,0%);stroke-opacity:1;stroke-miterlimit:10;" d="M 185.554688 157.570312 L 187.960938 166.992188 "/>
<path style="fill:none;stroke-width:1.2;stroke-linecap:butt;stroke-linejoin:miter;stroke:rgb(0%,0%,100%);stroke-opacity:1;stroke-miterlimit:10;" d="M 187.960938 166.992188 L 190.367188 176.417969 "/>
<path style="fill:none;stroke-width:1.2;stroke-linecap:butt;stroke-linejoin:miter;stroke:rgb(0%,0%,0%);stroke-opacity:1;stroke-miterlimit:10;" d="M 181.601562 160.589844 L 183.527344 168.125 "/>
<path style="fill:none;stroke-width:1.2;stroke-linecap:butt;stroke-linejoin:miter;stroke:rgb(0%,0%,100%);stroke-opacity:1;stroke-miterlimit:10;" d="M 183.527344 168.125 L 185.449219 175.664062 "/>
<path style="fill:none;stroke-width:1.2;stroke-linecap:butt;stroke-linejoin:miter;stroke:rgb(0%,0%,0%);stroke-opacity:1;stroke-miterlimit:10;" d="M 185.554688 157.570312 L 192.511719 150.777344 "/>
<path style="fill:none;stroke-width:1.2;stroke-linecap:butt;stroke-linejoin:miter;stroke:rgb(0%,0%,100%);stroke-opacity:1;stroke-miterlimit:10;" d="M 192.511719 150.777344 L 199.46875 143.980469 "/>
<path style=" stroke:none;fill-rule:nonzero;fill:rgb(100%,100%,100%);fill-opacity:1;" d="M 187.367188 170.917969 L 194.367188 170.917969 L 194.367188 181.917969 L 187.367188 181.917969 Z M 187.367188 170.917969 "/>
<g style="fill:rgb(0%,0%,100%);fill-opacity:1;">
  <use xlink:href="#glyph0-1" x="187.367188" y="179.581055"/>
</g>
<path style="fill:none;stroke-width:1.2;stroke-linecap:butt;stroke-linejoin:miter;stroke:rgb(0%,0%,100%);stroke-opacity:1;stroke-miterlimit:10;" d="M 199.46875 143.980469 L 208.832031 146.605469 "/>
<path style="fill:none;stroke-width:1.2;stroke-linecap:butt;stroke-linejoin:miter;stroke:rgb(0%,0%,0%);stroke-opacity:1;stroke-miterlimit:10;" d="M 208.832031 146.605469 L 218.195312 149.234375 "/>
<path style=" stroke:none;fill-rule:nonzero;fill:rgb(100%,100%,100%);fill-opacity:1;" d="M 192.46875 138.480469 L 206.46875 138.480469 L 206.46875 149.480469 L 192.46875 149.480469 Z M 192.46875 138.480469 "/>
<g style="fill:rgb(0%,0%,100%);fill-opacity:1;">
  <use xlink:href="#glyph0-1" x="192.46875" y="147.143555"/>
  <use xlink:href="#glyph0-2" x="199.446289" y="147.143555"/>
</g>
<path style="fill:none;stroke-width:1.2;stroke-linecap:butt;stroke-linejoin:miter;stroke:rgb(0%,0%,0%);stroke-opacity:1;stroke-miterlimit:10;" d="M 218.195312 149.234375 L 232.109375 135.640625 "/>
<path style="fill:none;stroke-width:1.2;stroke-linecap:butt;stroke-linejoin:miter;stroke:rgb(0%,0%,0%);stroke-opacity:1;stroke-miterlimit:10;" d="M 232.109375 135.640625 L 250.835938 140.894531 "/>
<path style="fill:none;stroke-width:1.2;stroke-linecap:butt;stroke-linejoin:miter;stroke:rgb(0%,0%,0%);stroke-opacity:1;stroke-miterlimit:10;" d="M 235.21875 131.761719 L 250.199219 135.964844 "/>
<path style="fill:none;stroke-width:1.2;stroke-linecap:butt;stroke-linejoin:miter;stroke:rgb(0%,0%,0%);stroke-opacity:1;stroke-miterlimit:10;" d="M 227.292969 116.796875 L 232.109375 135.640625 "/>
<path style="fill:none;stroke-width:1.2;stroke-linecap:butt;stroke-linejoin:miter;stroke:rgb(0%,0%,0%);stroke-opacity:1;stroke-miterlimit:10;" d="M 250.835938 140.894531 L 264.75 127.304688 "/>
<path style="fill:none;stroke-width:1.2;stroke-linecap:butt;stroke-linejoin:miter;stroke:rgb(0%,0%,0%);stroke-opacity:1;stroke-miterlimit:10;" d="M 264.75 127.304688 L 259.9375 108.460938 "/>
<path style="fill:none;stroke-width:1.2;stroke-linecap:butt;stroke-linejoin:miter;stroke:rgb(0%,0%,0%);stroke-opacity:1;stroke-miterlimit:10;" d="M 259.835938 126.554688 L 255.984375 111.476562 "/>
<path style="fill:none;stroke-width:1.2;stroke-linecap:butt;stroke-linejoin:miter;stroke:rgb(0%,0%,0%);stroke-opacity:1;stroke-miterlimit:10;" d="M 259.9375 108.460938 L 241.207031 103.207031 "/>
<path style="fill:none;stroke-width:1.2;stroke-linecap:butt;stroke-linejoin:miter;stroke:rgb(0%,0%,0%);stroke-opacity:1;stroke-miterlimit:10;" d="M 241.207031 103.207031 L 227.292969 116.796875 "/>
<path style="fill:none;stroke-width:1.2;stroke-linecap:butt;stroke-linejoin:miter;stroke:rgb(0%,0%,0%);stroke-opacity:1;stroke-miterlimit:10;" d="M 243.015625 107.839844 L 231.882812 118.710938 "/>
<path style="fill:none;stroke-width:1.2;stroke-linecap:butt;stroke-linejoin:miter;stroke:rgb(0%,0%,100%);stroke-opacity:1;stroke-miterlimit:10;" d="M 158.199219 134.882812 L 148.574219 136.292969 "/>
<path style="fill:none;stroke-width:1.2;stroke-linecap:butt;stroke-linejoin:miter;stroke:rgb(0%,0%,0%);stroke-opacity:1;stroke-miterlimit:10;" d="M 148.574219 136.292969 L 138.953125 137.703125 "/>
<path style="fill:none;stroke-width:1.2;stroke-linecap:butt;stroke-linejoin:miter;stroke:rgb(0%,0%,100%);stroke-opacity:1;stroke-miterlimit:10;" d="M 156.9375 139.695312 L 149.238281 140.820312 "/>
<path style="fill:none;stroke-width:1.2;stroke-linecap:butt;stroke-linejoin:miter;stroke:rgb(0%,0%,0%);stroke-opacity:1;stroke-miterlimit:10;" d="M 149.238281 140.820312 L 141.539062 141.949219 "/>
<path style=" stroke:none;fill-rule:nonzero;fill:rgb(100%,100%,100%);fill-opacity:1;" d="M 155.199219 129.382812 L 162.199219 129.382812 L 162.199219 140.382812 L 155.199219 140.382812 Z M 155.199219 129.382812 "/>
<g style="fill:rgb(0%,0%,100%);fill-opacity:1;">
  <use xlink:href="#glyph0-1" x="155.199219" y="138.045898"/>
</g>
<path style="fill:none;stroke-width:1.2;stroke-linecap:butt;stroke-linejoin:miter;stroke:rgb(0%,0%,0%);stroke-opacity:1;stroke-miterlimit:10;" d="M 138.953125 137.703125 L 137.320312 147.289062 "/>
<path style="fill:none;stroke-width:1.2;stroke-linecap:butt;stroke-linejoin:miter;stroke:rgb(0%,0%,100%);stroke-opacity:1;stroke-miterlimit:10;" d="M 137.320312 147.289062 L 135.683594 156.875 "/>
<path style="fill:none;stroke-width:1.2;stroke-linecap:butt;stroke-linejoin:miter;stroke:rgb(0%,0%,0%);stroke-opacity:1;stroke-miterlimit:10;" d="M 138.953125 137.703125 L 125.363281 123.789062 "/>
<path style="fill:none;stroke-width:1.2;stroke-linecap:butt;stroke-linejoin:miter;stroke:rgb(0%,0%,100%);stroke-opacity:1;stroke-miterlimit:10;" d="M 135.683594 156.875 L 126.96875 161.1875 "/>
<path style="fill:none;stroke-width:1.2;stroke-linecap:butt;stroke-linejoin:miter;stroke:rgb(0%,0%,0%);stroke-opacity:1;stroke-miterlimit:10;" d="M 126.96875 161.1875 L 118.253906 165.503906 "/>
<path style=" stroke:none;fill-rule:nonzero;fill:rgb(100%,100%,100%);fill-opacity:1;" d="M 132.683594 151.375 L 139.683594 151.375 L 139.683594 162.375 L 132.683594 162.375 Z M 132.683594 151.375 "/>
<g style="fill:rgb(0%,0%,100%);fill-opacity:1;">
  <use xlink:href="#glyph0-1" x="132.683594" y="160.038086"/>
</g>
<path style="fill:none;stroke-width:1.2;stroke-linecap:butt;stroke-linejoin:miter;stroke:rgb(0%,0%,0%);stroke-opacity:1;stroke-miterlimit:10;" d="M 118.253906 165.503906 L 114.984375 184.675781 "/>
<path style="fill:none;stroke-width:1.2;stroke-linecap:butt;stroke-linejoin:miter;stroke:rgb(0%,0%,0%);stroke-opacity:1;stroke-miterlimit:10;" d="M 101.027344 156.46875 L 118.253906 165.503906 "/>
<path style="fill:none;stroke-width:1.2;stroke-linecap:butt;stroke-linejoin:miter;stroke:rgb(0%,0%,0%);stroke-opacity:1;stroke-miterlimit:10;" d="M 114.984375 184.675781 L 95.738281 187.492188 "/>
<path style="fill:none;stroke-width:1.2;stroke-linecap:butt;stroke-linejoin:miter;stroke:rgb(0%,0%,0%);stroke-opacity:1;stroke-miterlimit:10;" d="M 95.738281 187.492188 L 91.425781 178.777344 "/>
<path style="fill:none;stroke-width:1.2;stroke-linecap:butt;stroke-linejoin:miter;stroke:rgb(0%,0%,100%);stroke-opacity:1;stroke-miterlimit:10;" d="M 91.425781 178.777344 L 87.113281 170.0625 "/>
<path style="fill:none;stroke-width:1.2;stroke-linecap:butt;stroke-linejoin:miter;stroke:rgb(0%,0%,100%);stroke-opacity:1;stroke-miterlimit:10;" d="M 87.113281 170.0625 L 94.070312 163.265625 "/>
<path style="fill:none;stroke-width:1.2;stroke-linecap:butt;stroke-linejoin:miter;stroke:rgb(0%,0%,0%);stroke-opacity:1;stroke-miterlimit:10;" d="M 94.070312 163.265625 L 101.027344 156.46875 "/>
<path style="fill:none;stroke-width:1.2;stroke-linecap:butt;stroke-linejoin:miter;stroke:rgb(0%,0%,100%);stroke-opacity:1;stroke-miterlimit:10;" d="M 87.113281 170.0625 L 77.527344 168.425781 "/>
<path style="fill:none;stroke-width:1.2;stroke-linecap:butt;stroke-linejoin:miter;stroke:rgb(0%,0%,0%);stroke-opacity:1;stroke-miterlimit:10;" d="M 77.527344 168.425781 L 67.9375 166.792969 "/>
<path style=" stroke:none;fill-rule:nonzero;fill:rgb(100%,100%,100%);fill-opacity:1;" d="M 84.113281 164.5625 L 91.113281 164.5625 L 91.113281 175.5625 L 84.113281 175.5625 Z M 84.113281 164.5625 "/>
<g style="fill:rgb(0%,0%,100%);fill-opacity:1;">
  <use xlink:href="#glyph0-1" x="84.113281" y="173.225586"/>
</g>
<path style="fill:none;stroke-width:1.2;stroke-linecap:butt;stroke-linejoin:miter;stroke:rgb(0%,0%,0%);stroke-opacity:1;stroke-miterlimit:10;" d="M 67.9375 166.792969 L 61.179688 148.554688 "/>
<path style="fill:none;stroke-width:1.2;stroke-linecap:butt;stroke-linejoin:miter;stroke:rgb(0%,0%,0%);stroke-opacity:1;stroke-miterlimit:10;" d="M 61.179688 148.554688 L 73.597656 133.582031 "/>
<path style="fill:none;stroke-width:1.2;stroke-linecap:butt;stroke-linejoin:miter;stroke:rgb(0%,0%,0%);stroke-opacity:1;stroke-miterlimit:10;" d="M 58.898438 144.136719 L 68.832031 132.15625 "/>
<path style="fill:none;stroke-width:1.2;stroke-linecap:butt;stroke-linejoin:miter;stroke:rgb(0%,0%,0%);stroke-opacity:1;stroke-miterlimit:10;" d="M 42.007812 145.285156 L 61.179688 148.554688 "/>
<path style="fill:none;stroke-width:1.2;stroke-linecap:butt;stroke-linejoin:miter;stroke:rgb(0%,0%,0%);stroke-opacity:1;stroke-miterlimit:10;" d="M 73.597656 133.582031 L 66.839844 115.34375 "/>
<path style="fill:none;stroke-width:1.2;stroke-linecap:butt;stroke-linejoin:miter;stroke:rgb(0%,0%,0%);stroke-opacity:1;stroke-miterlimit:10;" d="M 66.839844 115.34375 L 47.667969 112.074219 "/>
<path style="fill:none;stroke-width:1.2;stroke-linecap:butt;stroke-linejoin:miter;stroke:rgb(0%,0%,0%);stroke-opacity:1;stroke-miterlimit:10;" d="M 64.15625 119.527344 L 48.816406 116.914062 "/>
<path style="fill:none;stroke-width:1.2;stroke-linecap:butt;stroke-linejoin:miter;stroke:rgb(0%,0%,0%);stroke-opacity:1;stroke-miterlimit:10;" d="M 47.667969 112.074219 L 35.25 127.046875 "/>
<path style="fill:none;stroke-width:1.2;stroke-linecap:butt;stroke-linejoin:miter;stroke:rgb(0%,0%,0%);stroke-opacity:1;stroke-miterlimit:10;" d="M 35.25 127.046875 L 42.007812 145.285156 "/>
<path style="fill:none;stroke-width:1.2;stroke-linecap:butt;stroke-linejoin:miter;stroke:rgb(0%,0%,0%);stroke-opacity:1;stroke-miterlimit:10;" d="M 40.21875 127.28125 L 45.621094 141.871094 "/>
<path style="fill:none;stroke-width:1.2;stroke-linecap:butt;stroke-linejoin:miter;stroke:rgb(0%,0%,0%);stroke-opacity:1;stroke-miterlimit:10;" d="M 125.363281 123.789062 L 130.617188 105.058594 "/>
<path style="fill:none;stroke-width:1.2;stroke-linecap:butt;stroke-linejoin:miter;stroke:rgb(0%,0%,0%);stroke-opacity:1;stroke-miterlimit:10;" d="M 121.480469 120.679688 L 125.683594 105.695312 "/>
<path style="fill:none;stroke-width:1.2;stroke-linecap:butt;stroke-linejoin:miter;stroke:rgb(0%,0%,0%);stroke-opacity:1;stroke-miterlimit:10;" d="M 106.515625 128.601562 L 125.363281 123.789062 "/>
<path style="fill:none;stroke-width:1.2;stroke-linecap:butt;stroke-linejoin:miter;stroke:rgb(0%,0%,0%);stroke-opacity:1;stroke-miterlimit:10;" d="M 130.617188 105.058594 L 117.023438 91.144531 "/>
<path style="fill:none;stroke-width:1.2;stroke-linecap:butt;stroke-linejoin:miter;stroke:rgb(0%,0%,0%);stroke-opacity:1;stroke-miterlimit:10;" d="M 117.023438 91.144531 L 98.179688 95.960938 "/>
<path style="fill:none;stroke-width:1.2;stroke-linecap:butt;stroke-linejoin:miter;stroke:rgb(0%,0%,0%);stroke-opacity:1;stroke-miterlimit:10;" d="M 116.273438 96.0625 L 101.195312 99.914062 "/>
<path style="fill:none;stroke-width:1.2;stroke-linecap:butt;stroke-linejoin:miter;stroke:rgb(0%,0%,0%);stroke-opacity:1;stroke-miterlimit:10;" d="M 98.179688 95.960938 L 92.925781 114.6875 "/>
<path style="fill:none;stroke-width:1.2;stroke-linecap:butt;stroke-linejoin:miter;stroke:rgb(0%,0%,0%);stroke-opacity:1;stroke-miterlimit:10;" d="M 92.925781 114.6875 L 106.515625 128.601562 "/>
<path style="fill:none;stroke-width:1.2;stroke-linecap:butt;stroke-linejoin:miter;stroke:rgb(0%,0%,0%);stroke-opacity:1;stroke-miterlimit:10;" d="M 97.558594 112.878906 L 108.429688 124.011719 "/>
</g>
</svg>

<svg xmlns="http://www.w3.org/2000/svg" xmlns:xlink="http://www.w3.org/1999/xlink" width="300pt" height="300pt" viewBox="0 0 300 300"><defs><symbol overflow="visible"><path d="M.453 1.594v-7.938h4.5v7.938zm.5-.5h3.5v-6.938h-3.5zm0 0"/></symbol><symbol overflow="visible" id="a"><path d="M.89-6.563H2.08l2.906 5.485v-5.484h.86V0H4.656L1.75-5.484V0H.89zm0 0"/></symbol><symbol overflow="visible" id="b"><path d="M.89-6.563h.876v2.688H5v-2.688h.89V0H5v-3.125H1.766V0H.89zm0 0"/></symbol></defs><g><path fill="#fff" d="M0 0h300v300H0z"/><path d="M181.266 208.855l-4.813-18.847M176.453 190.008l-9.363-2.625" stroke-width="1.2" stroke="#000" stroke-miterlimit="10" fill="none"/><path d="M167.09 187.383l-9.363-2.63" stroke-width="1.2" stroke="#00f" stroke-miterlimit="10" fill="none"/><path d="M175.816 185.078l-7.492-2.1" stroke-width="1.2" stroke="#000" stroke-miterlimit="10" fill="none"/><path d="M168.324 182.977l-7.488-2.102M190.367 176.418l-6.957 6.793" stroke-width="1.2" stroke="#00f" stroke-miterlimit="10" fill="none"/><path d="M183.41 183.21l-6.957 6.798" stroke-width="1.2" stroke="#000" stroke-miterlimit="10" fill="none"/><path d="M157.727 184.754l-2.41-9.422" stroke-width="1.2" stroke="#00f" stroke-miterlimit="10" fill="none"/><path d="M155.316 175.332l-2.406-9.422" stroke-width="1.2" stroke="#000" stroke-miterlimit="10" fill="none"/><path d="M154.727 179.254h7v11h-7zm0 0" fill="#fff"/><use xlink:href="#a" x="154.727" y="187.917" fill="#00f"/><path d="M152.91 165.91l13.914-13.594M151.105 161.277l11.13-10.875" stroke-width="1.2" stroke="#000" stroke-miterlimit="10" fill="none"/><path d="M135.684 156.875l8.613 4.516" stroke-width="1.2" stroke="#00f" stroke-miterlimit="10" fill="none"/><path d="M144.297 161.39l8.613 4.52M166.824 152.316l18.73 5.254M166.824 152.316l-4.312-8.714" stroke-width="1.2" stroke="#000" stroke-miterlimit="10" fill="none"/><path d="M162.512 143.602l-4.313-8.72" stroke-width="1.2" stroke="#00f" stroke-miterlimit="10" fill="none"/><path d="M185.555 157.57l2.406 9.422" stroke-width="1.2" stroke="#000" stroke-miterlimit="10" fill="none"/><path d="M187.96 166.992l2.407 9.426" stroke-width="1.2" stroke="#00f" stroke-miterlimit="10" fill="none"/><path d="M181.602 160.59l1.925 7.535" stroke-width="1.2" stroke="#000" stroke-miterlimit="10" fill="none"/><path d="M183.527 168.125l1.922 7.54" stroke-width="1.2" stroke="#00f" stroke-miterlimit="10" fill="none"/><path d="M185.555 157.57l6.957-6.793" stroke-width="1.2" stroke="#000" stroke-miterlimit="10" fill="none"/><path d="M192.512 150.777l6.957-6.797" stroke-width="1.2" stroke="#00f" stroke-miterlimit="10" fill="none"/><path d="M187.367 170.918h7v11h-7zm0 0" fill="#fff"/><use xlink:href="#a" x="187.367" y="179.581" fill="#00f"/><path d="M199.47 143.98l9.362 2.625" stroke-width="1.2" stroke="#00f" stroke-miterlimit="10" fill="none"/><path d="M208.832 146.605l9.363 2.63" stroke-width="1.2" stroke="#000" stroke-miterlimit="10" fill="none"/><path d="M192.47 138.48h14v11h-14zm0 0" fill="#fff"/><g fill="#00f"><use xlink:href="#a" x="192.469" y="147.144"/><use xlink:href="#b" x="199.446" y="147.144"/></g><path d="M218.195 149.234l13.914-13.593M232.11 135.64l18.726 5.255M235.22 131.762l14.98 4.203M227.293 116.797l4.816 18.844M250.836 140.895l13.914-13.59M264.75 127.305l-4.813-18.844M259.836 126.555l-3.852-15.078M259.938 108.46l-18.73-5.253M241.207 103.207l-13.914 13.59M243.016 107.84l-11.133 10.87" stroke-width="1.2" stroke="#000" stroke-miterlimit="10" fill="none"/><path d="M158.2 134.883l-9.626 1.41" stroke-width="1.2" stroke="#00f" stroke-miterlimit="10" fill="none"/><path d="M148.574 136.293l-9.62 1.41" stroke-width="1.2" stroke="#000" stroke-miterlimit="10" fill="none"/><path d="M156.938 139.695l-7.7 1.125" stroke-width="1.2" stroke="#00f" stroke-miterlimit="10" fill="none"/><path d="M149.238 140.82l-7.7 1.13" stroke-width="1.2" stroke="#000" stroke-miterlimit="10" fill="none"/><path d="M155.2 129.383h7v11h-7zm0 0" fill="#fff"/><use xlink:href="#a" x="155.199" y="138.046" fill="#00f"/><path d="M138.953 137.703l-1.633 9.586" stroke-width="1.2" stroke="#000" stroke-miterlimit="10" fill="none"/><path d="M137.32 147.29l-1.636 9.585" stroke-width="1.2" stroke="#00f" stroke-miterlimit="10" fill="none"/><path d="M138.953 137.703l-13.59-13.914" stroke-width="1.2" stroke="#000" stroke-miterlimit="10" fill="none"/><path d="M135.684 156.875l-8.715 4.313" stroke-width="1.2" stroke="#00f" stroke-miterlimit="10" fill="none"/><path d="M126.97 161.188l-8.716 4.316" stroke-width="1.2" stroke="#000" stroke-miterlimit="10" fill="none"/><path d="M132.684 151.375h7v11h-7zm0 0" fill="#fff"/><use xlink:href="#a" x="132.684" y="160.038" fill="#00f"/><path d="M118.254 165.504l-3.27 19.172M101.027 156.47l17.227 9.034M114.984 184.676l-19.246 2.816M95.738 187.492l-4.312-8.715" stroke-width="1.2" stroke="#000" stroke-miterlimit="10" fill="none"/><path d="M91.426 178.777l-4.313-8.714M87.113 170.063l6.957-6.797" stroke-width="1.2" stroke="#00f" stroke-miterlimit="10" fill="none"/><path d="M94.07 163.266l6.957-6.797" stroke-width="1.2" stroke="#000" stroke-miterlimit="10" fill="none"/><path d="M87.113 170.063l-9.586-1.637" stroke-width="1.2" stroke="#00f" stroke-miterlimit="10" fill="none"/><path d="M77.527 168.426l-9.59-1.633" stroke-width="1.2" stroke="#000" stroke-miterlimit="10" fill="none"/><path d="M84.113 164.563h7v11h-7zm0 0" fill="#fff"/><use xlink:href="#a" x="84.113" y="173.226" fill="#00f"/><path d="M67.938 166.793l-6.758-18.238M61.18 148.555l12.418-14.973M58.898 144.137l9.934-11.98M42.008 145.285l19.172 3.27M73.598 133.582l-6.758-18.238M66.84 115.344l-19.172-3.27M64.156 119.527l-15.34-2.613M47.668 112.074L35.25 127.047M35.25 127.047l6.758 18.238M40.22 127.28l5.4 14.59M125.363 123.79l5.254-18.73M121.48 120.68l4.204-14.985M106.516 128.602l18.847-4.813M130.617 105.06l-13.594-13.915M117.023 91.145L98.18 95.96M116.273 96.063l-15.078 3.85M98.18 95.96l-5.254 18.728M92.926 114.688l13.59 13.914M97.56 112.88l10.87 11.132" stroke-width="1.2" stroke="#000" stroke-miterlimit="10" fill="none"/></g></svg>
